src/svg/24/check_circle_on_24.svg

<svg fill="none" height="24" viewBox="0 0 24 24" width="24" xmlns="http://www.w3.org/2000/svg"><path clip-rule="evenodd" d="m12 24c6.6274 0 12-5.3726 12-12 0-6.62742-5.3726-12-12-12-6.62742 0-12 5.37258-12 12 0 6.6274 5.37258 12 12 12zm6.2071-14.79289c.3905-.39053.3905-1.02369 0-1.41422-.3905-.39052-1.0237-.39052-1.4142 0l-6.7929 6.79291-2.79289-2.7929c-.39053-.3905-1.02369-.3905-1.41422 0-.39052.3905-.39052 1.0237 0 1.4142l3.5 3.5c.39053.3905 1.02371.3905 1.41421 0z" fill="currentColor" fill-rule="evenodd"/></svg>

<svg width="24" height="24" viewBox="0 0 24 24" fill="none" xmlns="http://www.w3.org/2000/svg">
<path fill-rule="evenodd" clip-rule="evenodd" d="M12 24C18.6274 24 24 18.6274 24 12C24 5.37258 18.6274 0 12 0C5.37258 0 0 5.37258 0 12C0 18.6274 5.37258 24 12 24ZM18.2071 9.20711C18.5976 8.81658 18.5976 8.18342 18.2071 7.79289C17.8166 7.40237 17.1834 7.40237 16.7929 7.79289L10 14.5858L7.20711 11.7929C6.81658 11.4024 6.18342 11.4024 5.79289 11.7929C5.40237 12.1834 5.40237 12.8166 5.79289 13.2071L9.29289 16.7071C9.68342 17.0976 10.3166 17.0976 10.7071 16.7071L18.2071 9.20711Z" fill="currentColor"/>
</svg>
